pix_core/e/delete_row.svg

<!DOCTYPE svg PUBLIC "-//W3C//DTD SVG 1.1//EN" "http://www.w3.org/Graphics/SVG/1.1/DTD/svg11.dtd" [
	<!ENTITY ns_flows "http://ns.adobe.com/Flows/1.0/">
]><svg xmlns="http://www.w3.org/2000/svg" width="16" height="16" viewBox="0 -2 16 16" preserveAspectRatio="xMinYMid meet" overflow="visible" enable-background="new 0 -2 16 16"><path d="M11 9h-2v4h-9v-1h8v-3h-8v-5h8v-3h-8v-1h9v4h2v5zm3.2-3.8l-2.2-1.2v5l2.2-1.2 2.2-1.2-2.2-1.4z" fill="#999"/></svg>

<!DOCTYPE svg PUBLIC "-//W3C//DTD SVG 1.1//EN" "http://www.w3.org/Graphics/SVG/1.1/DTD/svg11.dtd" [
	<!ENTITY ns_flows "http://ns.adobe.com/Flows/1.0/">
]><svg xmlns="http://www.w3.org/2000/svg" width="16" height="16" viewBox="0 -2 16 16" preserveAspectRatio="xMinYMid meet" overflow="visible"><path d="M11 9H9v4H0v-1h8V9H0V4h8V1H0V0h9v4h2v5zm3.2-3.8L12 4v5l2.2-1.2 2.2-1.2-2.2-1.4z" fill="#999"/></svg>
